src/assets/metronic/worbby/global/img/icon-tasks-done-white.svg

<?xml version="1.0" encoding="UTF-8"?>
<svg width="50px" height="24px" viewBox="0 0 50 24" version="1.1" xmlns="http://www.w3.org/2000/svg" xmlns:xlink="http://www.w3.org/1999/xlink">
    <!-- Generator: Sketch 41.2 (35397) - http://www.bohemiancoding.com/sketch -->
    <title>icon-tasks-done</title>
    <desc>Created with Sketch.</desc>
    <defs></defs>
    <g id="Desktop" stroke="none" stroke-width="1" fill="none" fill-rule="evenodd">
        <g id="Desktop-Needor-Worbbior-Profile" transform="translate(-415.000000, -1078.000000)" fill="white">
            <g id="Group-15-Copy-2" transform="translate(175.000000, 779.000000)">
                <g id="Group-12" transform="translate(190.000000, 287.000000)">
                    <g id="Group-11" transform="translate(10.000000, 12.000000)">
                        <g id="icon-tasks-done" transform="translate(40.000000, 0.000000)">
                            <path d="M48.0682671,2.32614644 C47.0048531,2.32614644 46.1427857,3.19345467 46.1427857,4.26333359 C46.1427857,14.0247441 40.1225306,15.4839241 36.527882,15.4839241 C36.1021885,15.4831194 35.6796132,15.4108449 35.2775694,15.2700787 C34.03793,14.7720257 32.9872887,13.8911686 32.2768192,12.7542513 C31.1286272,11.0597147 30.4786019,9.07380451 30.4013503,7.02445422 C30.3574001,6.17579397 30.5757917,5.3342691 31.0265066,4.61554943 C31.4235033,4.1122826 32.047757,3.8468431 32.6831708,3.91111774 C33.3083271,3.91111774 33.4646162,4.13754221 33.5458865,4.25704402 C33.8633479,4.83176647 34.0026863,5.48888584 33.9459865,6.14391461 C33.9112355,7.79362722 33.5961964,9.42519784 33.0145036,10.9680138 C33.7584396,12.3454293 34.7836959,13.5278682 35.9402351,13.8423466 C37.0666798,11.4134005 37.7040861,8.78414685 37.8157039,6.1061772 C37.8749257,4.65156615 37.4839283,3.21432117 36.6966742,1.99279931 C35.7746406,0.698601601 34.2712588,-0.0470408044 32.6894224,0.00529561287 C30.8376427,-0.0752453401 29.0652326,0.766945079 27.9507377,2.25696119 C26.9948465,3.64218653 26.5101704,5.30142729 26.5691423,6.98671681 C26.6533334,10.4073642 27.9225748,13.6909695 30.1575394,16.2701201 C28.4696174,18.5595231 26.5191298,20.1319153 25.0062516,20.1319153 C23.4933733,20.1319153 21.5303826,18.5658127 19.8362091,16.2764097 L19.8362091,16.2764097 C19.0186526,15.166071 18.3109442,13.9779818 17.7231808,12.729093 L17.7231808,12.729093 C16.6940561,10.6694487 16.120358,8.41005569 16.0415104,6.1061772 C15.9848106,5.45114842 16.124149,4.79402906 16.4416104,4.21930661 C16.5291323,4.0998048 16.6854214,3.87338033 17.3043261,3.87338033 C17.9397399,3.80910569 18.5639936,4.07454519 18.9609902,4.57781202 C19.4117052,5.29653169 19.6300968,6.13805656 19.5861465,6.98671681 C19.547898,8.37786338 19.2310838,9.74694896 18.6546637,11.0120407 C19.2268921,12.4181078 19.9567991,13.7538549 20.8302076,14.9933377 C22.4481604,12.634313 23.3475582,9.85196051 23.4183546,6.98671681 C23.4773265,5.30142729 22.9926504,3.64218653 22.0367592,2.25696119 C20.9235372,0.768825072 19.1539345,-0.0731421688 17.3043261,0.00529561287 C15.7203061,-0.0491696128 14.2141005,0.696709695 13.2908227,1.99279931 C12.512359,3.21721661 12.1301558,4.65424791 12.1967992,6.1061772 C12.1967992,8.78553344 13.1470368,12.1693214 14.6974244,15.2637891 C14.2953806,15.4045553 13.8728052,15.4768298 13.4471118,15.4776345 C9.85871468,15.4776345 3.83220805,14.0184546 3.83220805,4.25704402 C3.73303563,3.26611777 2.90318982,2.51230681 1.91327253,2.5139315 C0.923355247,2.51555619 0.0959583964,3.27208708 0,4.26333359 C0,13.5718952 5.15753938,19.3582983 13.4596149,19.3582983 C14.5982176,19.3596073 15.7231053,19.1083511 16.7541885,18.6224188 C19.0172543,21.7294657 21.9242311,24 25,24 C28.0757689,24 30.9827457,21.7294657 33.2458115,18.6224188 C34.2768947,19.1083511 35.4017824,19.3596073 36.5403851,19.3582983 C44.8424606,19.3582983 50,13.5781848 50,4.26333359 C50.0000027,3.74846802 49.7962821,3.25478132 49.4338311,2.89130692 C49.0713801,2.52783252 48.5800188,2.3244748 48.0682671,2.32614644 L48.0682671,2.32614644 Z"></path>
                        </g>
                    </g>
                </g>
            </g>
        </g>
    </g>
</svg>

<svg xmlns="http://www.w3.org/2000/svg" width="50" height="24"><path fill="#fff" fill-rule="evenodd" d="M48.0683 2.326c-1.0634 0-1.9255.8675-1.9255 1.9373 0 9.7614-6.0203 11.2206-9.615 11.2206-.4256-.001-.8482-.0732-1.2502-.214-1.2397-.498-2.2903-1.3788-3.0008-2.5157-1.1482-1.6946-1.7982-3.6805-1.8754-5.7298-.044-.8487.1744-1.6902.625-2.409.397-.5032 1.0214-.7687 1.6568-.7044.625 0 .7814.2265.8627.346.3173.5748.4567 1.232.4 1.887-.0348 1.6496-.3498 3.2812-.9315 4.824.744 1.3774 1.7692 2.56 2.9257 2.8743 1.1265-2.429 1.764-5.0582 1.8755-7.736.0592-1.4547-.3318-2.892-1.119-4.1135C35.7747.6986 34.2713-.047 32.6894.0053c-1.8518-.0805-3.6242.7616-4.7387 2.2517-.956 1.3852-1.4405 3.0444-1.3816 4.7297.0843 3.4207 1.3536 6.7043 3.5885 9.2834-1.688 2.2895-3.6384 3.862-5.1512 3.862-1.513 0-3.476-1.5662-5.17-3.8556-.8176-1.1103-1.5254-2.2984-2.113-3.5473-1.0292-2.0596-1.603-4.319-1.6818-6.6228-.0567-.655.0826-1.3122.4-1.887.0876-.1194.244-.3458.8628-.3458.6354-.0643 1.2597.201 1.6567.7044.4507.7187.669 1.5603.625 2.409-.038 1.391-.355 2.76-.9313 4.0252.5722 1.406 1.302 2.742 2.1755 3.9813 1.618-2.359 2.5174-5.1413 2.5882-8.0066.059-1.6853-.4257-3.3445-1.3816-4.7297-1.1133-1.4882-2.883-2.33-4.7325-2.2517-1.584-.0545-3.0902.6914-4.0135 1.9875-.7784 1.2244-1.1606 2.6614-1.094 4.1134 0 2.6793.9502 6.063 2.5006 9.1576-.402.1408-.8246.213-1.2503.2138-3.5883 0-9.6148-1.459-9.6148-11.2206-.0992-.991-.929-1.7447-1.919-1.743C.9235 2.5155.096 3.272 0 4.2632c0 9.3086 5.1575 15.095 13.4596 15.095 1.1386.0013 2.2635-.25 3.2946-.736C19.0172 21.7296 21.9242 24 25 24c3.0758 0 5.9827-2.2705 8.2458-5.3776 1.031.486 2.156.7372 3.2946.736C44.8424 19.3583 50 13.578 50 4.2633c0-.515-.2037-1.0086-.5662-1.372-.3624-.3636-.8538-.567-1.3655-.5653z"/></svg>
